dist/svg/object-add.svg

<!-- Generated by Trend Micro Style Portal -->
<svg version="1.1" xmlns="http://www.w3.org/2000/svg" width="16" height="16" viewBox="0 0 16 16">
  <title>object-add</title>
  <path fill="rgb(34,34,34)" d="M2 1h12v2h-12zM2 4h10v2h-10zM2 7h8v2h-8zM2 10h4v3.6l-4 1.4zM11.5 11.9l-1.9-1.9-0.6 0.6 1.9 1.9-1.9 1.9 0.6 0.6 1.9-1.9 1.9 1.9 0.6-0.6-1.9-1.9 1.9-1.9-0.6-0.6z"></path>
</svg>

<svg width="16" height="16" viewBox="0 0 16 16" fill="rgb(34, 34, 34)" xmlns="http://www.w3.org/2000/svg"><title>object-add</title><path d="M2 1H14V3H2V1ZM2 4H12V6H2V4ZM2 7H10V9H2V7ZM2 10H6V13.6L2 15V10ZM11.5 11.9L9.6 10L9 10.6L10.9 12.5L9 14.4L9.6 15L11.5 13.1L13.4 15L14 14.4L12.1 12.5L14 10.6L13.4 10L11.5 11.9Z" fill="rgb(34, 34, 34)" fill-opacity="1.00"/></svg>
